X: 960
T: Temperance Reel
B: jims roots
B: ralph
M:4/4
L:1/8
Q: 1/4=100
K:Gmaj
V:1 
|:(3DEF|"G"G2 GF GABc|d2ge dBAc|"Em"BEED EFGA |BGAF "D"GFED|
"G"G2 GF GABc|d2ge dBAc|"Em"BEED EFGA |"(G)"BG"D"AF "G"G2:||
|:"Em"Beed e2ef| geaf gfed| "D"Add^c d2de | fdaf gfed|
"Em"Beed e2ef| geaf gfed|BEED EFGA|"D"BGAF "G"G2:||
% abcbook-tune_id 6298c2979c0a9dbfbdefae8d


% abcbook-boost 0
% abcbook-tablature 
% abcbook-transpose 
% abcbook-lastupdated 1654178455947
% abcbook-soundfonts 
% abcbook-repeats 1


